X:191
T: ALLGUETIGER VERNIMM DER UNSCHULD FLEHEN
N: F0334
O: Europa, Mitteleuropa, Deutschland
R: Jugend - Lied, religioes
M: 4/4
L: 1/8
K: Ab
ceG | A2zABcdc | c2B2z
Bef | g4-gef=d | e4z
edB | A3GAABc | edc2z
ceA | f4zcdG | A4z

@@@ Tune index: 5622
